X:170
T: Lotus Club
M: 4/4
L: 1/8
S: Luke O'Malley vol 1
Z: B.Black
R: hornpipe
K: F
AG | FEFC A,CFA | c=Bcd cAFA | G^FGA BAG=F |\
(3EGB ed (3cdc (3BAG|
FEFC A,CFA | c=Bcd cAFA | G^FGA BGDE | F2 A2 F2 :|
(EF^F | G2 c=B dcBc | A2 d^c edcd | c=BAG ^FGAB |\
(3cdc =BA G2 (3EF^F|
G2 c=B dcBc | A2 d^c edcd | c=BAG ^FG=fB |\
|1 cBcd c2 :|2 c2 e2 c2 ||
P: version in G
K: G
BA | GFGD B,DGB | d^cde dBGB | A^GAB cBA=G |\
(3FAc fe (3ded (3cBA|
GFGD B,DGB | d^cde dBGB | A^GAB cAEF | G2 B2 G2 :|
(3FG^G | A2 d^c edcd | B2 e^d fede | d^cBA ^GABc |\
(3ded ^cB A2 (3FG^G|
A2 d^c edcd | B2 e^d fede | d^cBA ^GAgc |\
|1 dcde d2 :|2 d2 f2 d2 ||
